X:1
T:Youkali
T:Kurt Weill
T:Roger Fernay
T:Youkali
T:Tango Habanera
C:Kurt Weill
Z:Roger Fernay
%%score ( 1 2 ) { ( 3 5 ) | ( 4 6 ) }
L:1/8
M:2/4
K:Eb
V:1 treble nm="Voice"
V:2 treble 
V:3 treble nm="Piano"
V:5 treble 
V:4 bass 
V:6 bass 
V:1
 z3/2!mf!!mf! G/ ^F/G/E/D/ |: C2 C2 | z3/2 D/ E/D/C/=B,/ | C2 C2 | z3/2 D/ E/D/C/=B,/ | C2 C2 | %6
w: 1.C'est presqu' au bout du|mon- de,|Ma bar- que va- ga-|bon- de,|Er- rant au- gré de|l'on- de,|
w: |trai- ne,|Las- san- te, quo- ti-|dien- ne,|Mais la pauvre âme hu-|mai- ne,|
 z3/2 =B,/ C/D/E/F/ | G4 | z3/2!<(! G/ B/G/E/C/!<)! |!>(! ((B>A)) A2-!>)! | A>!<(!F A/F/D/!<)!B,/ | %11
w: M'y con- dui- sit un|jour.|L'ile est tou- te pe-|ti- * te,|_ Mais la feé qui l'ha-|
w: Cherch- ant par- tout l'ou-|bli,|A, pour quit- ter la|ter- * re,|_ Su trouv- er le mys-|
!>(! ((A>G)) G2-!>)! | G>!<(!E G/E/C/A,/!<)! |!>(! (G>F) F2-!>)! |!>(! F>C =B,/C/D/E/ | F4- | %16
w: bi- * te,|_ Gen- ti- ment nous in-|vi- * te,|_ A en fai- re le|tour.|
w: tè- * re,|_ Où nos rê- ves se|ter- * rent,|_ En quel- que You- ka-|li.|
 F3!>)!!p! (^F || G2) (G2- | G>)(G F/)E/D/C/ | D>E (D2- |!<(! D3) D!<)! | c2 (c2- | %22
w: _ You-|ka- li,|_ C'est le pa- ys de|nos de- sirs,|_ You-|ka- li,|
w: _ _||||||
 c>)(c B/)A/G/F/ | G>A (G2- |!<(! G3) G!<)! | d2 d2- | d/!<(!c/c/=B/ B/A/A/G/!<)! | F/ED/ C2- | %28
w: _ C'est le bon- heur, c'est|le plai- sir,|_ You-|ka- li,|_ C'est la terre où l'on quit- te|tous les sou- cis,|
w: ||||||
 C2!mf! c2 | A/G^F/ GG | A/G^F/ GG | A/G^F/ G2- | G2 e2 | d>c c2 | z2 z!p!!<(! C!<)! | c2 c2- | %36
w: _ C'est,|dans no- tre nuit, comme|une é- clair- cie, l'é-|toi- le qu'on suit,|_ C'est|You- ka- li.|You-|ka- li,|
w: ||||||||
 c/!>(!c/d/e/ f/e/d/c/!>)! | c/B=A/ B2- | B3!<(! B,!<)! | A2!<(! A2-!<)! | A/!>(!A/B/c/ d/c/B/A/ | %41
w: _ C'est le re- spect de tous les|vœux é- chang- és,|_ You-|ka- li,|_ C'est le pa- ys des beaux a-|
w: |||||
 A/G^F/!>)! G2- | G2!>(! c2 | G>F F2!>)! | FF/G/ A/A/G/F/ | A>G G2- | G2!>(! c2 | G>F!>)! F2 | %48
w: mours par- ta- gés,|_ C'est|l'es- pé- ran-|ce Qui est au cœur de tous|les hu- mains,|_ La|dé- li- vran-|
w: |||||||
 FF/!>(!G/ A/A/G/F/!>)! | A>G G2- | G3!mf! G | e2 e2- | ed/e/ f/e/d/c/ | d>e d2- | d3 F | d2 d2- | %56
w: ce Que nous at- tend- ons tous|pour de- main,|_ You-|ka- li,|_ C'est _ le pa- ys de|nous dé- sirs,|_ You-|ka- li,|
w: ||||||||
 d^c/d/ f/e/e/d/ |!>(! =c>d c2-!>)! | c z!p! e2 | d>c c2- | c z e2 | c>B B2- | B z B,2 | %63
w: _ C'est _ le bon- heur, c'est|le plai- sir|_ Mais|c'est un rêve,|_ u-|ne fo- lie,|_ Il|
w: |||||||
 G>F!p!!>(! F2- | F2 G2 | F>E!>)!!p! E2- | E z!pp! e2 | d>c c2- | c z e2 | c>B B2- | B z B,2 | %71
w: n'y a pas|_ de|You- ka- li!...|_ Mais|c'est un rêve,|_ u-|ne fo- lie,|_ Il|
w: ||||||||
 G>F F2- |1 F z!>(! G2 | F>E E2- | E z/!>)!!mf! G/ ^F/G/E/D/ :|2 F z =C2 || (E4 | e4- | e4) | e4 | %80
w: n'y a pas|_ de|You- ka- li!|_ Et la vie nous en|_ de|You-|||ka-|
w: |||||||||
 e4- | e4- | e2"^rit." z2 | !fermata!z4 |] %84
w: li!|_|||
w: ||||
V:2
 x4 |: x4 | x4 | x4 | x4 | x4 | x4 | x4 | x4 | x4 | x4 | x4 | x4 | x4 | x4 | x4 | x4 || x4 | x4 | %19
 x4 | x4 | x4 | x4 | x4 | x4 | x4 | x4 | x4 | x4 | x4 | x4 | x4 | x4 | x4 | x4 | x4 | x4 | x4 | %38
 x4 | x4 | x4 | x4 | x4 | x4 | x4 | x4 | x4 | x4 | x4 | x4 | x4 | g2 g2- | g>g x2 | x4 | z3 d | %55
 f2 f2- | f>f x2 | x4 | x4 | x4 | x4 | x4 | x4 | x4 | x4 | x4 | x4 | x4 | x4 | x4 | x4 | x4 |1 x4 | %73
 x4 | x4 :|2 x4 || x4 | x4 | x4 | x4 | x4 | x4 | x4 | x4 |] %84
V:3
 z3/2!mf! .G/ (^F/G/).E/.D/ |: C2 C2- | C>D (E/D/)C/=B,/ | C2 C2- | C>D (E/D/)C/=B,/ | C2 C2- | %6
 C>=B, (C/D/)E/F/ | G4- | G>!<(!G (B/G/E/C/-)!<)! |!>(! [CFB]>[CFA] [CFA]2-!>)! | %10
 [CFA]>(F!<(! A/F/D/)B,/-!<)! |!>(! [B,EA]>[B,EG]!>)! [B,EG]2- | [B,EG]>(E G/E/C/A,/- | %13
 [A,CG]>)[A,CF] [A,CF]2- | [A,CF]>!>(!(C =B,/C/D/E/ | [=B,F]4- | [B,F]3)!p! ([D^F]!>)! || %17
 [EG]2) [EG]2- | [EG]>(G F/)E/D/C/ | D>E D2- |!<(! D3 (D!<)! | [Ac]2) [Ac]2- | [Ac]>(c B/)A/G/F/ | %23
 G>A (G2 | G3) G | d2 d2- | [Fd]/!<(![Ec]/([Ec]/[D=B]/) (([DB]/([CA]/))([CA]/)[=B,G]/)!<)! | %27
 (F/ED/ C2- | C2)!mf! c2 | .[CEA]/!tenuto![CEG].[CE^F]/ !tenuto![CEG]!tenuto![CEG] | %30
 .[CEA]/!tenuto![CEG].[CE^F]/ !tenuto![CEG]!tenuto![CEG] | %31
 .[=B,DA]/!tenuto![B,DG].[B,D^F]/ !tenuto![B,DG]2- | [B,DG]2 [EG=Be]2 | [EGd]>[EGc] [EGc]2- | %34
 [EGc]3!p!!<(! C!<)! | [Ac]2 [Ac]2- | [Ac]/!>(!([Ac]/[Bd]/[ce]/ [df]/[ce]/[Bd]/[Ac]/) | %37
 ([Ac]/[GB][^F=A]/!>)! [GB]2- | [GB]3) (B, | [FA]2)!<(! [FA]2-!<)! | %40
 [FA]/!>(!([FA]/[G_B]/[Ac]/ [Bd]/[Ac]/[GB]/[FA]/) | ([FA]/[EG]!>)![D^F]/ [EG]2- | %42
 [EG]2)!>(! (!>![EGc]2 | [A,CG]>)[A,C=F]!>)! [A,CF]2- | [A,CF]([DF]/[EG]/ [FA]/)([FA]/[EG]/[DF]/) | %45
 ([CEA]>[CEG]) [CEG]2- | [CEG]2!>(! (!>![EGc]2 | [A,CG]>)[A,C=F]!>)! [A,CF]2- | %48
 [A,CF]!>(!([DF]/[EG]/ [FA]/)([FA]/[EG]/!>)![DF]/) | [=B,FA]>[B,FG] [B,FG]2 | G3!mf! (G | %51
 [eg]2) [eg]2- | [eg]>[eg] [df]/[ce]/[Gd]/[Ec]/ | [FAcd]>[FAce] [FAcd]2- | [FAcd]3 d | %55
 [F=Bf]2 [FBf]2- | [FBf]>[F=Bf] ([FBf]/[EBe]/)([EBe]/[Dd]/) |!>(! ([EGc]>[EGd] [EGc]2-!>)! | %58
 [EGc]) z ([EGe]2 | [E_Gd]>[EGc]) [EGc]2- | [EGc]2 ([E_Ge]2 | [E=Gc]>[EGB]) [EGB]2- | [EGB]2 (B,2 | %63
 [_A,_CG]>[A,CF])!>(! [A,CF]2- | [A,CF]2 ([B,G]2 | [G,B,F]>[G,B,F])!>)! [G,B,E]2- | %66
 [G,B,E]!pp! z ([ege']2 | [d_gd']>[cgc']) [cgc']2- | [cgc']2 ([e_gd']2 | [c=gc']>[cgb]) [Bgb]2- | %70
 [Bgb]2 (B2 | [G_cg]>[Fcf]) [Fcf]2- |1 [Fcf]2 [Bdg]2 | [A=cf]>[GBe] [GBe]2- | %74
 [GBe] z/!mf! G/ (^F/G/).E/D/ :|2 [F_cf]2 [=CFA=c]2 || z3/2 (E/ed | c4) | z3/2 (E/ed | c4) | %80
 z3/2 (E/ed | c>)!>(!(EcB | =AG (3^FGA | !fermata!G4)!>)! |] %84
V:4
 z4 |: .[C,,G,,]/!tenuto![C,,G,,].[C,,G,,]/ !tenuto![C,,G,,]!tenuto![C,,G,,] | %2
 .[D,,=A,,]/!tenuto![D,,A,,].[D,,A,,]/ !tenuto![D,,A,,]!tenuto![D,,A,,] | %3
 .[C,,G,,]/!tenuto![C,,G,,][C,,G,,]/ .[C,,G,,]!tenuto![C,,G,,] | %4
 .[D,,=A,,]/!tenuto![D,,A,,].[D,,A,,]/ !tenuto![D,,A,,]!tenuto![D,,A,,] | %5
 .[C,,G,,]/!tenuto![C,,G,,].[C,,G,,]/ !tenuto![C,,G,,]!tenuto![C,,G,,] | %6
 .[D,,G,,]/!tenuto![D,,G,,].[D,,G,,]/ !tenuto![D,,G,,]!tenuto![D,,G,,] | %7
 .[E,,C,]/!tenuto![E,,C,](.[E,,C,]/ [E,,C,]/).[E,,C,]/!tenuto![E,,C,] | %8
 !tenuto![E,,C,]!<(!!tenuto![E,,C,] z (C,,!<)! |!>(! F,,>).[F,A,] !tenuto![F,A,](F,,!>)! | %10
 B,,,>).[D,A,] !tenuto![D,A,](B,,, | E,,>).[E,G,] !tenuto![E,G,](E,, | %12
 C,,>).[E,G,] !tenuto![E,G,]((C,, | F,,>)).[C,F,] !tenuto![C,F,](F,, | %14
 D,,>).[C,F,A,] !tenuto![C,F,A,](D,, | G,,>).[D,F,G,] !tenuto![D,F,G,](D,, | %16
 G,,>).[D,F,G,] !tenuto![D,F,G,]G,,- || [C,,G,,]>([E,C] .[G,D]).[E,C] | x3/2 G,/ A,/G,/F,/E,/ | %19
 F,,>([F,A,] .[A,C]).[F,A,] | F,,>([F,A,] .[A,C]).[F,A,] | F,,>([F,C] .[A,D]).[F,A,] | %22
 F,,>([F,C] .[A,D]).[F,C] | [C,,G,,]>([E,C] .[G,D]).[E,C] | [C,,G,,]>([E,C] .[G,D]).[E,C] | %25
 G,,>([F,=B,] .[G,D]).[F,C] | G,,>([D,F,] .[F,A,]).[D,F,] | A,,>([C,D,] .[D,F,]).[C,D,] | %28
 A,,>([C,D,] .[D,F,]).[C,D,] | G,,>([C,E,] .[E,G,]).[C,E,] | G,,>([C,E,] .[E,G,]).[C,E,] | %31
 G,,>(D, .=F,).D, | G,,>(D, .F,).G,, | [C,,G,,]>([E,C] .[G,D]).[E,C] | %34
 [C,,G,,]>([E,C] .[G,D]).[E,C] | (A,,/D,E,/ CE,) | (A,,/D,E,/ CE,) | (E,,/=A,,B,,/ G,B,,) | %38
 (E,,/=A,,B,,/ G,B,,) | (F,,/=B,,C,/ A,C,) | (F,,/=B,,C,/ A,C,) | (C,,/^F,,G,,/ E,G,,) | %42
 (C,,/^F,,G,,/ E,G,,) | (F,,/=B,,C,/ .F,.C,) | (F,,/=B,,C,/ .F,.C,) | (C,,/^F,,G,,/ .E,).G,, | %46
 (C,,/^F,,G,,/ .E,).G,, | (D,,/G,,A,,/ .F,).A,, | (D,,/G,,A,,/ .F,).A,, | (G,,/^C,D,/ .G,).D, | %50
 (G,,/^C,D,/ .G,).D, | [=C,,G,,]>([E,C] .[G,D]).[E,C] | [C,,G,,]>([E,C] .[G,D]).[E,C] | %53
 G,,>([F,C] .[A,D]).[F,C] | F,,>([F,C] .[A,D]).[F,C] | G,,>([F,=B,] .[G,D]).[F,B,] | %56
 G,,>([F,=B,] .[G,D]).[F,B,] | C,,>([E,G,C] .[E,G,D]).[E,G,C] | C,,>([E,G,C] .[E,G,D]).[E,G,C] | %59
 (A,,>E, CE,) | (A,,>E, CE,) | (E,,>B,, G,B,,) | (E,,>B,, G,B,,) | (B,,,>F,, E,F,,) | %64
 (B,,,>F,, D,B,,,) | (E,,>B,, C,B,,,) | (E,,>B,,!pp! C,E,,) | (A,,>E, CE,) | (A,,>E, CE,) | %69
 (E,,>B,, G,B,,) | (E,,>B,, G,B,,) | (B,,,>A,, E,A,,) |1 (B,,,>A,, D,B,,,) | (E,,>B,, C,B,,, | %74
 E,,) z z2 :|2 (B,,,>A,, D,B,,,) || (E,,>B,, G,B,,) | (F,,>C, =A,C,) | (E,,>B,, G,B,,) | %79
 (F,,>C, =A,C,) | (E,,>B,, G,B,,) | (F,,>C, =A,C,) | (E,,>B,, G,B,,-) | !fermata!B,,4 |] %84
V:5
 x4 |: .[E,G,]/!tenuto![E,G,].[E,G,]/ [E,G,]!tenuto![E,G,] | %2
 .^F,/!tenuto!F,.F,/ !tenuto!F,!tenuto!F, | .[E,G,]/!tenuto![E,G,][E,G,]/ .[E,G,]!tenuto![E,G,] | %4
 .^F,/!tenuto!F,.F,/ !tenuto!F,!tenuto!F, | %5
 .[E,G,]/!tenuto![E,G,].[E,G,]/ !tenuto![E,G,]!tenuto![E,G,] | %6
 .=F,/!tenuto!F,.F,/ !tenuto!F,!tenuto!F, | %7
 .[G,C]/!tenuto![G,C](.[G,C]/ [G,C]/).[G,C]/!tenuto![G,C] | !tenuto![G,C]!tenuto![G,C] z2 | x4 | %10
 x4 | x4 | x4 | x4 | x4 | x4 | x4 || x4 | x4 | x4 | x4 | x4 | A>A G/F/E/D/ | E>F (E2 | E3) x | %25
 F2 F2- | x4 | C2 A,2- | A,2 [FA]2 | x4 | x4 | x4 | x4 | x4 | x4 | x4 | x4 | x4 | x4 | x4 | x4 | %41
 x4 | x4 | x4 | x4 | x4 | x4 | x4 | x4 | x4 | x4 | x4 | x4 | x4 | x4 | x4 | x4 | x4 | x4 | x4 | %60
 x4 | x4 | x4 | x4 | x4 | x4 | x4 | x4 | x4 | x4 | x4 | x4 |1 x4 | x4 | x4 :|2 x4 || [EGe]4 | %77
 z3/2 (E/ED | C4) | z3/2 (E/ED | C4) | z3/2 E/ED | _D4- | D4 |] %84
V:6
 x4 |: x4 | x4 | x4 | x4 | x4 | x4 | x4 | x4 | x4 | x4 | x4 | x4 | x4 | x4 | x4 | x4 || x4 | %18
 [C,,G,,]>C,- C,2 | x4 | x4 | x4 | x4 | x4 | x4 | x4 | x4 | x4 | x4 | x4 | x4 | x4 | x4 | x4 | x4 | %35
 x4 | x4 | x4 | x4 | x4 | x4 | x4 | x4 | x4 | x4 | x4 | x4 | x4 | x4 | x4 | x4 | x4 | x4 | x4 | %54
 x4 | x4 | x4 | x4 | x4 | x4 | x4 | x4 | x4 | x4 | x4 | x4 | x4 | x4 | x4 | x4 | x4 | x4 |1 x4 | %73
 x4 | x4 :|2 x4 || x4 | x4 | x4 | x4 | x4 | x4 | x4 | E,,4 |] %84

